X:223
T:The old oak tree
R:Reel
O:Ireland
D:De Dannan: Selected Jigs and Reels.
D:Tommy Peoples.
B:Ceol 2 n199
S:hnreel~1.abc
Z:Transcription:Norbeck?, minor arr., chords:Mike Long
M:C|
L:1/8
K:D
B|\
"A"AGFE "D"D2FD|"G"GEFE "D"Ddcd|"A"AGFE "D"DEFD|"C"EG=cA "G"BGE:|\
d|\
"A"cdec ~A3d|"A"cdec "G"AGEd|
"A"cdec ABAG|"C"EG=cA "G"BGEd|\
"A"cdec ~A3d|"A"cdec "G"AGEd|"A"cdeg fdec|"A"ABcA "G"Bdc|]
